X:141
T:Bow Bells
M:6/8
L:1/8
B:Thompson's Compleat Collection of 200 Favourite Country Dances, vol. 3 (London, 1773)
Z:Transcribed and edited by Flynn Titford-Mock, 2007
Z:abc's:AK/Fiddler's Companion
K:D
dfa gec | dAG FED | dfa gec | dAF D3::ged cBA | dAG FED |
ged cBA | Bdc d3::dcB AGF | BAG FED | dcB AGF | GFE D3 :|

